src/Assets/h3.svg

<svg width="24" height="24" viewBox="0 0 24 24" fill="none" xmlns="http://www.w3.org/2000/svg">
<path d="M5.33333 18.9999C5.40406 19 5.47696 19 5.55212 19H12M5.33333 18.9999C4.23525 18.9991 3.65926 18.9846 3.21311 18.7459C2.79497 18.5222 2.45526 18.1643 2.24221 17.7253C2 17.2262 2 16.5737 2 15.2669V8.73356C2 7.42677 2 6.77289 2.24221 6.27376C2.45526 5.83472 2.79497 5.47802 3.21311 5.25432C3.68847 5 4.31121 5 5.55577 5H18.4447C19.6892 5 20.3106 5 20.786 5.25432C21.2041 5.47802 21.545 5.83472 21.758 6.27376C22 6.7724 22 7.42549 22 8.72973V15.2703C22 16.5745 22 17.2267 21.758 17.7253C21.545 18.1643 21.2041 18.5222 20.786 18.7459C20.3111 19 19.69 19 18.4479 19H12M5.33333 18.9999C5.33338 17.7113 6.82574 16.6667 8.66667 16.6667C10.5076 16.6667 12 17.7113 12 19M5.33333 18.9999C5.33333 19 5.33333 18.9999 5.33333 18.9999ZM18.6667 14.3333H14.2222M18.6667 10.8333H15.3333M8.66667 13.1667C7.43937 13.1667 6.44444 12.122 6.44444 10.8333C6.44444 9.54467 7.43937 8.5 8.66667 8.5C9.89397 8.5 10.8889 9.54467 10.8889 10.8333C10.8889 12.122 9.89397 13.1667 8.66667 13.1667Z" stroke="#77978F" stroke-width="2" stroke-linecap="round" stroke-linejoin="round"/>
</svg>

<svg xmlns="http://www.w3.org/2000/svg" width="24" height="24" fill="none" viewBox="0 0 24 24"><path stroke="#77978f" stroke-linecap="round" stroke-linejoin="round" stroke-width="2" d="M5.333 19H12m-6.667 0c-1.098 0-1.674-.015-2.12-.254a2.3 2.3 0 0 1-.97-1.02C2 17.225 2 16.573 2 15.265v-6.53c0-1.307 0-1.961.242-2.46a2.28 2.28 0 0 1 .971-1.02C3.688 5 4.311 5 5.556 5h12.889c1.244 0 1.866 0 2.341.254.418.224.759.58.972 1.02C22 6.772 22 7.425 22 8.73v6.54c0 1.305 0 1.957-.242 2.455a2.3 2.3 0 0 1-.972 1.02C20.311 19 19.69 19 18.448 19H12m-6.667 0c0-1.289 1.493-2.333 3.334-2.333S12 17.71 12 19m-6.667 0q0 0 0 0m13.334-4.667h-4.445m4.445-3.5h-3.334m-6.666 2.334c-1.228 0-2.223-1.045-2.223-2.334 0-1.288.995-2.333 2.223-2.333s2.222 1.045 2.222 2.333-.995 2.334-2.222 2.334"/></svg>
